X:4880
L:1/4
M:4/4
K:E
"^Molto moderato" B/A/ | G E B B | A/G/ E E d | B/c/ d e e | E d B z/ B/ | B/c/ d e e | 
 d/B/ G A G/A/ | B c d E/E/ | G F E |][M:6/8][K:G] B/ | d d/ A c/ | B A/ G d/ | g g/ d/e/g/ | 
 f e/ d d/ | d/e/f/ g/f/g/ | e/d/e/ B/A/G/ | A B/ d/e/d/ | B A/ G |][M:3/4][K:D] D | E2 D | E F G | 
 C2 E | D2 A | d2 d | c B A | c2 B | A2 A | B2 B | d c B | A2 F | B2 B | A2 F | F E D | F2 E | 
 D2 |]

